resources/haticons/SVG/local_laundry_service.svg

<!-- Generated by IcoMoon.io -->
<svg version="1.1" xmlns="http://www.w3.org/2000/svg" width="24" height="24" viewBox="0 0 24 24">
<title>local_laundry_service</title>
<path d="M12 20.016q2.484 0 4.242-1.758t1.758-4.242-1.758-4.242-4.242-1.758-4.242 1.758-1.758 4.242 1.758 4.242 4.242 1.758zM6.984 3.984q-0.422 0-0.703 0.305t-0.281 0.727 0.281 0.703 0.703 0.281 0.727-0.281 0.305-0.703-0.305-0.727-0.727-0.305zM9.984 3.984q-0.422 0-0.703 0.305t-0.281 0.727 0.281 0.703 0.703 0.281 0.727-0.281 0.305-0.703-0.305-0.727-0.727-0.305zM18 2.016q0.844 0 1.43 0.563t0.586 1.406v16.031q0 0.844-0.586 1.406t-1.43 0.563h-12q-0.844 0-1.43-0.563t-0.586-1.406v-16.031q0-0.844 0.586-1.406t1.43-0.563h12zM9.188 16.828l5.625-5.672q1.172 1.172 1.172 2.859 0 1.641-1.172 2.813t-2.813 1.172-2.813-1.172z"></path>
</svg>

<svg xmlns="http://www.w3.org/2000/svg" width="24" height="24"><path d="M12 20.016q2.484 0 4.242-1.758T18 14.016t-1.758-4.242T12 8.016 7.758 9.774 6 14.016t1.758 4.242T12 20.016zM6.984 3.984q-.422 0-.703.305T6 5.016t.281.703.703.281.727-.281.305-.703-.305-.727-.727-.305zm3 0q-.422 0-.703.305T9 5.016t.281.703.703.281.727-.281.305-.703-.305-.727-.727-.305zM18 2.016q.844 0 1.43.563t.586 1.406v16.031q0 .844-.586 1.406t-1.43.563H6q-.844 0-1.43-.563t-.586-1.406V3.985q0-.844.586-1.406T6 2.016h12zM9.188 16.828l5.625-5.672q1.172 1.172 1.172 2.859 0 1.641-1.172 2.813T12 18t-2.813-1.172z"/></svg>
